src/svg/monochrome/24/verification-in-progress.svg

<svg width="24" height="24" viewBox="0 0 24 24" fill="none" xmlns="http://www.w3.org/2000/svg">
<g id="verification-in-progress">
<path id="Union" d="M12.543 1.46387C18.1172 1.74646 22.5497 6.35559 22.5498 12C22.5497 17.8265 17.8265 22.5508 12 22.5508L11.7373 22.5469C11.1251 22.5319 10.5244 22.464 9.94141 22.3486C9.53538 22.268 9.27121 21.8739 9.35156 21.4678C9.432 21.0615 9.8271 20.7976 10.2334 20.8779C10.6614 20.9626 11.1007 21.0171 11.5488 21.0391L12 21.0508C16.9981 21.0508 21.0497 16.9981 21.0498 12C21.0497 7.15814 17.2474 3.20436 12.4658 2.96191L12 2.9502L11.5488 2.96094C11.1007 2.98288 10.6614 3.03741 10.2334 3.12207L10.1572 3.13281C9.7789 3.16855 9.42712 2.91294 9.35156 2.53223C9.27142 2.12613 9.53539 1.73092 9.94141 1.65039L10.1934 1.60449C10.7808 1.50306 11.3846 1.45021 12 1.4502L12.543 1.46387ZM3.43359 16.8223C3.77779 16.5919 4.24418 16.6841 4.47461 17.0283C5.05284 17.8918 5.77552 18.6507 6.6084 19.2695L6.97266 19.5264L7.03418 19.5723C7.32677 19.8146 7.39465 20.2448 7.17871 20.5674C6.96261 20.8898 6.53865 20.9909 6.20312 20.8125L6.1377 20.7725L5.92383 20.626C4.86467 19.8786 3.94936 18.9405 3.22754 17.8623C2.99717 17.5182 3.08952 17.0527 3.43359 16.8223ZM15.1855 8.50586C15.4583 8.19451 15.9325 8.16311 16.2441 8.43555C16.5554 8.70823 16.5868 9.18152 16.3145 9.49316L11.0664 15.4932C10.9241 15.6558 10.7181 15.7498 10.502 15.75C10.2856 15.75 10.0789 15.656 9.93652 15.4932L7.68555 12.9199L7.6377 12.8594C7.41798 12.5495 7.46471 12.1169 7.75684 11.8613C8.04919 11.6061 8.48401 11.6185 8.76172 11.8779L8.81445 11.9326L10.501 13.8604L15.1855 8.50586ZM2.53223 9.35156C2.93831 9.43215 3.20243 9.82721 3.12207 10.2334L3.04785 10.665C2.98355 11.1003 2.9502 11.5461 2.9502 12C2.9502 12.4539 2.98355 12.8997 3.04785 13.335L3.12207 13.7676L3.13281 13.8438C3.16815 14.2218 2.91273 14.573 2.53223 14.6484C2.15149 14.7236 1.78108 14.4961 1.66992 14.1328L1.65039 14.0576L1.60449 13.8076C1.50298 13.2199 1.45021 12.6157 1.4502 12C1.45021 11.2964 1.5186 10.6076 1.65039 9.94141L1.66992 9.86816C1.78087 9.50459 2.15132 9.27639 2.53223 9.35156ZM6.1377 3.22754C6.48188 2.99723 6.94831 3.08945 7.17871 3.43359C7.40884 3.77774 7.3167 4.24424 6.97266 4.47461C5.98547 5.13553 5.13553 5.98547 4.47461 6.97266C4.24424 7.3167 3.77774 7.40884 3.43359 7.17871C3.08945 6.94831 2.99724 6.48188 3.22754 6.1377C3.99749 4.9877 4.9877 3.99749 6.1377 3.22754Z" fill="#3D3C3C"/>
</g>
</svg>

<svg xmlns="http://www.w3.org/2000/svg" width="24" height="24" fill="currentColor" viewBox="0 0 24 24">
  <path d="M12.543 1.464C18.117 1.746 22.55 6.356 22.55 12c0 5.826-4.724 10.55-10.55 10.55l-.263-.003a10.584 10.584 0 0 1-1.796-.198.75.75 0 1 1 .292-1.471c.428.085.868.14 1.316.161l.451.012a9.05 9.05 0 0 0 .466-18.09L12 2.952l-.451.01a9.06 9.06 0 0 0-1.316.161l-.076.01a.75.75 0 0 1-.216-1.482l.252-.046A10.614 10.614 0 0 1 12 1.45l.543.014Zm-9.11 15.358a.75.75 0 0 1 1.042.206 9.105 9.105 0 0 0 2.133 2.242l.365.256.061.046a.751.751 0 0 1-.83 1.24l-.066-.04-.214-.146a10.606 10.606 0 0 1-2.696-2.764.75.75 0 0 1 .206-1.04Zm11.752-8.316a.751.751 0 0 1 1.13.987l-5.249 6a.752.752 0 0 1-1.13 0l-2.25-2.573-.048-.06a.75.75 0 0 1 1.124-.982l.052.055 1.687 1.927 4.684-5.354Zm-12.653.846a.75.75 0 0 1 .59.881l-.074.432a9.132 9.132 0 0 0 0 2.67l.074.433.01.076a.75.75 0 0 1-1.462.289l-.02-.075-.046-.25A10.617 10.617 0 0 1 1.65 9.94l.02-.073a.75.75 0 0 1 .862-.516Zm3.606-6.124a.75.75 0 0 1 .835 1.247 9.103 9.103 0 0 0-2.498 2.498.751.751 0 0 1-1.247-.835c.77-1.15 1.76-2.14 2.91-2.91Z"/>
</svg>
